!!!!SEGMENT: pl-wtm--r-2519--004_hertz-michal--kanon.krn
!!!cenid: 18xx:3088
!!!COM: Hertz, Michał
!!!COM-rismid: pe41023359
!!!CDT: 1844/09/28-~1918
!!!CNT: Polish
!!!OTL: Kanon [4]
!!!PDT:
!!!AGN:
!!!SMS-siglum: PL-Wtm
!!!SMS-shelfmark: R 2519
!!!SMS-shelfwork: 004 W
!!!SMS-variant:
!!!SMS-altvar:
!!!NIFC-rismid: 1001082119
!!!URL-scan: http://repozytorium.nifc.pl/skany/pl-wtm-nut--r2519
!!!ONB-nifc: UWAGA: 9 Kanonów num. 001-009. Skan 0009-0010
**kern	**kern
*part2	*part1
*staff2	*staff1
*Iforte	*Iforte
*I"[Fortepian]	*I"[Fortepian]
*I'	*I'
*clefF4	*clefG2
*k[b-e-]	*k[b-e-]
*B-:	*B-:
*M9/8	*M9/8
*>[A,A1,A,A2,B,C,C1,C,C2,D]	*>[A,A1,A,A2,B,C,C1,C,C2,D]
=1	=1
!!LO:TX:t=P:problem:all\left, middle, right:global
8D\L	8%9ryy
8G\	.
8F\J	.
8E-\L	.
8D\	.
8C\J	.
8BB-\L	.
8AA\	.
8GG\J	.
*>A	*>A
=2!|:	=2!|:
8BB-\L	8d/L
8E-\	8g/
8D\J	8f/J
4.r	8e-/L
.	8d/
.	8c/J
8GG/L	8B-/L
8FF/	8A/
8EE-/J	8G/J
=3	=3
8GG/L	8B-\L
8C/	8e-\
8BB-/J	8d\J
8AA/L	4.r
8GG/	.
8FF/J	.
8EE-/L	8G</L
8DD/	8F</
8CC/J	8E-</J
=4	=4
8EE-\L	8G</L
8AA\	8c</
8GG\J	8B-</J
!LO:N:vis=4	!
4.r	8A</L
.	8G</
.	8F</J
8C/L	8E-</L
8BB-/	8D</
8AA/J	8C</J
=5	=5
8GG\L	8E-</L
8FF\	8A</
8EE-\J	8G</J
4FF\	4.r<
8FF\	.
8FF\L	8c</L
8GG\	8B-</
8AA\J	8A</J
!!linebreak:original
=6	=6
4BB-/	8G</L
.	8F</
8C/	8E-</J
8D\L	4F</
8E-\	.
8D\J	8f\
4D\	8f\L
.	8g\
8C\	8a\J
=7	=7
8BB-\L	4b-\
8B-\	.
8A\J	8cc\
4G\	8dd\L
.	8ee-\
8F\	8dd\J
8F\L	4dd\
8G\	.
8A\J	8cc\
=8	=8
4B-\	8b-\L
.	8bb-\
8c\	8aa\J
4C\	4gg\
8D\	8ff\
4D\	8ff\L
.	8gg\
8E-\	8aa\J
*>A1	*>A1
=9	=9
!	!LO:TX:a:t=                 I
8D\L	4bb-\
8G\	.
8F\J	8ccc\
8E-\L	4cc\
8D\	.
8C\J	8dd\
8BB-/L	4dd\
8AA/	.
8GG/J	8ee-\
*>A2	*>A2
=10:|!	=10:|!
!	!LO:TX:a:t=            II
8D\L	4bb-\
8BB-\	.
8AA\J	8ccc\
4A\	4cc\
8F\	8dd\
8F\L	4dd\
8D\	.
8C\J	8ee-\
!!linebreak:original
*>B	*>B
=11	=11
4BB-\	8dd\L
.	8b-\
8C\	8a\J
8D\L	4ff\
8E-\	.
8F\J	8dd\
4G\	8dd\L
.	8b-\
8c\	8a\J
=12	=12
8G\L	4b-\
8F\	.
8En\J	8cc\
4G\	8dd\L
.	8ee-\
8F\	8ff\J
8En\L	4gg\
8D\	.
8C\J	8ccc\
=13	=13
4C\	8gg\L
.	8ff\
8C\	8een\J
4c\	4gg\
8A\	8ff\
8C\L	8een\L
8D\	8dd\
8En\J	8cc\J
=14	=14
8F\L	4cc\
8F\	.
8G\J	8cc\
8A\L	4ccc\
8B-\	.
8c\J	8aa\
4A\	8cc\L
.	8dd\
8G\	8een\J
=15	=15
8A\L	8ff\L
8c\	8ff\
8B-\J	8gg\J
8A\L	8aa\L
8G\	8bb-\
8A\J	8ccc\J
8A\L	4aa\
8c\	.
8B-\J	8gg\
!!pagebreak:original
=16	=16
4A\	8aa\L
.	8ccc\
8G\	8bb-\J
8F#X\L	8aa\L
8En\	8gg\
8F#\J	8aa\J
4F#\	8aa\L
.	8ccc\
8G\	8bb-\J
=17	=17
4.D\	4aa\
.	8gg\
4.d\	8ff#X\L
.	8een\
.	8ff#\J
4.D\	4ff#\
.	8gg\
=18	=18
8D\L	4.dd\
8G\	.
8F\J	.
8E-X\L	4.ddd\
8D\	.
8C\J	.
8BB-\L	4.dd\
8AA\	.
8GG\J	.
=19	=19
8C\L	8d/L
8E-\	8g/
8D\J	8f/J
4.r	8e-/L
.	8d/
.	8c/J
8GG/L	8B-/L
8FF/	8A/
8EE-/J	8G/J
=20	=20
8GG\L	8B-/L
8C\	8e-/
8BB-\J	8d/J
8AA/L	4.r
8GG/	.
8FF/J	.
8EE-/L	8G</L
8DD/	8F</
8CC/J	8E-</J
!!linebreak:original
=21	=21
8EE-/L	8G</L
8AA/	8c</
8GG/J	8B-</J
4.r	8A</L
.	8G</
.	8F</J
8C\L	8E-</L
8BB-\	8D</
8AA\J	8C</J
=22	=22
8GG\L	8E-</L
8FF#X\	8A</
8EEn\J	8G</J
4FF#\	4.r<
8FF#\	.
8FF#\L	8c</L
8GG\	8B-</
8AA\J	8A</J
=23	=23
4BB-\	8G</L
.	8F#X</
8C\	8En</J
8D\L	4F#</
8E-X\	.
8D\J	8F#</
4D\	8F#</L
.	8G</
8C\	8A</J
=24	=24
*2\right	*
2.D\	4B-\
.	8c\
.	8d\L
.	8e-X\
.	8d\J
8D\L	4d\
8En\	.
8F#X\J	8c\
=25	=25
1.G;<	1.B-;
!!linebreak:original
=26||	=26||
*M4/4	*M4/4
*met(c)	*met(c)
8r	2r
8C\L	.
8C\	.
8C\J	.
4.c\	8r
.	8d\L
.	8d\
8B-\	8d\J
*>C	*>C
=27!|:	=27!|:
!	!LO:TX:a:t=2
8B-\L	4.dd\
8c\	.
8B-\	.
8A\J	8cc\
4.A\	8cc\L
.	8dd\
.	8cc\
8G\	8b-\J
=28	=28
8G\L	4.b-\
8A\	.
8G\	.
8F\J	8a\
4.F\	8a\L
.	8b-\
.	8a\
8E-\	8g\J
=29	=29
8r	4.g/
8E-\L	.
8E-\	.
8E-\J	8f/
4.e-\	8r
.	8f/L
.	8f/
8d\	8f/J
=30	=30
8d\L	4.ff\
8e-\	.
8d\	.
8c\J	8ee-\
4.c\	8ee-\L
.	8ff\
.	8ee-\
8B-\	8dd\J
=31	=31
8B-\L	4.dd\
8c\	.
8B-\	.
8A\J	8cc\
4.A\	8cc\L
.	8dd\
.	8cc\
8G\	8b-\J
!!pagebreak:original
=32	=32
8r	4.b-\
8G\L	.
8G\	.
8G\J	8a\
4.g>\	8rcc
.	8a/L
.	8a/
8f#X>\	8a/J
=33	=33
8r>	4.aa\
8f#X>\L	.
8f#>\	.
8f#>\J	8gg\
4.e->\	8rcc
.	8gg\L
.	8gg\
8d>\	8gg\J
=34	=34
8r>	4.ff#X\
8d>\L	.
8d>\	.
8d>\J	8ee-\
4.c>\	8r
.	8ee-\L
.	8ee-\
8B->\	8ee-\J
=35	=35
8B-\L	4.dd\
8c\	.
8B-\	.
8A\J	8cc\
8r	8cc\L
8A\L	8dd\
8A\	8cc\
8A\J	8b-\J
=36	=36
8G\L	8r
8A\	8b-\L
8G\	8b-\
8Fn\J	8b-\J
8r	8a\L
8F\L	8b-\
8F\	8a\
8F\J	8g\J
=37	=37
8E-\L	8r
8F\	8g/L
8E-\	8g/
8D\J	8g/J
!	!LO:TX:a:t=12
8D\L	8f/L
8D\	8g/
8D\	8f/
8C\J	8e-/J
!!linebreak:original
*>C1	*>C1
=38	=38
!	!LO:TX:a:t=                 I
8r	8e-/L
8C\L	8e-/
8C\	8e-/
8c\J	8d/J
4.c\	8r
.	8d/L
.	8d/
8B-\	8d/J
*>C2	*>C2
=39:|!	=39:|!
!	!LO:TX:a:t=             II
8G\L	8e-/L
8A\	8e-/
8G\	8e-/
8F\J	8d/J
4.F\	8a/L
.	8b-/
.	8a/
8E-\	8g/J
*>D	*>D
=40	=40
8E-\L	4.g/
8F\	.
8E-\	.
8D\J	8f/
4.D\	8f/L
.	8g/
.	8f/
8C\	8e-/J
=41	=41
8C\L	4.e-/
8D\	.
8C\	.
8BB-\J	8d/
4.BB-/	8d/L
.	8e-/
.	8d/
8AA/	8c/J
=42	=42
8AA\L	4.c/
8BB-\	.
8AA\	.
8GG\J	8B-/
8GG\L	8B-/L
8G\	8c/
8G\	8B-/
8G\J	8A/J
=43	=43
8F\L	8A/L
8G\	8a/
8F\	8a/
8E-\J	8a/J
8E-\L	8g/L
8e-\	8a/
8e-\	8g/
8e-\J	8f/J
!!linebreak:original
=44	=44
8d\L	8f\L
8e-\	8ff\
8d\	8ff\
8c\J	8ff\J
8c\L	8ee-\L
8C\	8ff\
8C\	8ee-\
8C\J	8dd\J
=45	=45
!	!LO:TX:t=P:problem:mixedbeam
8BB-\L	8dd\L
8B-\	8d/
8B-\	8d/
8B-\J	8d/J
!	!LO:TX:t=P:problem:mixedbeam
8B-\L	8c/L
8A\	8cc\
8A\	8cc\
8A\J	8cc\J
=46	=46
8A\L	8cc\L
8A\	8b-\
8G\	8b-\
8G\J	8b-\J
8G\L	8b-\L
8G\	8b-\
8G\	8a\
8F\J	8a\J
=47	=47
8F\L	8a/L
8F\	8a/
8F\	8a/
8F\J	8g/J
8E-\L	8g/L
8F\	8g/
8E-\	8g/
8D\J	8g/J
=48	=48
4.A\	8f/L
.	8g/
.	8f/
8G\	8e-/J
8G\L	4.b-\
8A\	.
8G\	.
8F\J	8a\
=49	=49
4.F\	8a/L
.	8b-/
.	8a/
8E-\	8g/J
8E-\L	4.g/
8F\	.
8E-\	.
8D\J	8f/
!!pagebreak:original
=50	=50
4.D\	8f/L
.	8g/
.	8f/
8C/	8e-/J
8G\L	4.e-/
8A\	.
8G\	.
8G\J	8d/
=51||	=51||
8r	8a/L
8C\L	8b-/
8C\	8a/
8C\J	8a/J
4.c\	8r
.	8d/L
.	8d/
8B-\	8d/J
=52	=52
!	!LO:TX:a:t=Takt\n2-12\nvon Anfang
8B-\L	4.dd\
8c\	.
8B-\	.
8A\J	8cc\
4.A\	8cc\L
.	8dd\
.	8cc\
8G\	8b-\J
=53	=53
8G\L	4.b-\
8A\	.
8G\	.
8F\J	8a/
4.F\	8a\L
.	8b-\
.	8a\
8E-\	8g\J
=54	=54
8r	4.g/
8E-\L	.
8E-\	.
8E-\J	8f/
4.e-\	8r
.	8f/L
.	8f/
8d\	8f/J
=55	=55
8d\L	4.ff\
8e-\	.
8d\	.
8c\J	8ee-\
4.c\	8ee-\L
.	8ff\
.	8ee-\
8B-\	8dd\J
=56	=56
8B-\L	4.dd\
8c\	.
8B-\	.
8A\J	8cc\
4.A\	8cc\L
.	8dd\
.	8cc\
8G\	8b-\J
=57	=57
8r	4.b-\
8G\L	.
8G\	.
8G\J	8a\
4.g>\	8rcc
.	8a/L
.	8a/
8f#X>\	8a/J
=33	=33
8r>	4.aa\
8f#X>\L	.
8f#>\	.
8f#>\J	8gg\
4.e->\	8rcc
.	8gg\L
.	8gg\
8d>\	8gg\J
=34	=34
8r>	4.ff#X\
8d>\L	.
8d>\	.
8d>\J	8ee-\
4.c>\	8r
.	8ee-\L
.	8ee-\
8B->\	8ee-\J
=35	=35
8B-\L	4.dd\
8c\	.
8B-\	.
8A\J	8cc\
8r	8cc\L
8A\L	8dd\
8A\	8cc\
8A\J	8b-\J
=36	=36
8G\L	8r
8A\	8b-\L
8G\	8b-\
8Fn\J	8b-\J
8r	8a\L
8F\L	8b-\
8F\	8a\
8F\J	8g\J
=37	=37
8E-\L	8r
8F\	8g/L
8E-\	8g/
8D\J	8g/J
!	!LO:TX:a:t=12
8D\L	8f/L
8D\	8g/
8D\	8f/
8C\J	8e-/J
=63	=63
8r	8e-/L
8C\L	8e-/
8C\	8e-/
8C\J	8e-/J
4.c\	8r
.	8d/L
.	8d/
8B-\	8d/J
=64	=64
!LO:TX:b:i:t=I. St.&. 31./10.71.	!
1c;<	1c;
==	==
*-	*-
!!!system-decoration: [(s1,s2)]
!!!RDF**kern: > = above
!!!RDF**kern: < = below
!!!AIN: 2 forte
!!!ENC: Anastazja Marusiak
!!!END: 2021-10-2
!!!ENC: Anastazja Marusiak
!!!END: 2021-10-22
